X:1001
T:Polska efter Lorens Brolin
T:(SvL Skåne 1001)
R:Slängpolska
S:efter Lorens Brolin
O:Abbekås, Skåne
B:Svenska Låtar Skåne
M:3/4
L:1/16
K:Am
ea^ga edcB A^GAB | cBce B/c/BA^G A2E2 | E2cB A^GAB c2c2 |cde^f gfag edcB | 
Aa^ga edcB A^GAB | cBce B/c/BA^G A2E2 |E2cB A^GAc e2e2 | cBA^G G2A2 A4 | 
ea^ga edcB A^GAB | cBce B/c/BA^G A2E2 | E2cB A^GAB c2c2 | cde^f g2a2 e4 |
ea^ga edcB A^GAB | cBce B/c/BA^G A2E2 | E2cB A^GAc e2e2 |cBA^G {G}A4 A2B2|
|: c4 c3c e2c2 | =G4 G/A/G=F2 {FE}F2E2 | e4 c3e g2g2 |EGce g^fed f2e2 | 
ea^ga edcB A^GAB | cBce B/c/BA^G A2E2 |E2cB A^GAc e2e2 |1 cBA^G G2A2 A2B2 :|2 cBA^G G2A2 A4 ||

